X:1
T:Down Where the Bees are Hummin'
M:2/4
L:1/8
K:G
 B| de cd| Bd c A/2A/2| GA BA|G-F D2| D2 D3/2 C/2| B,C D/2D/2 D/2D/2|\
 GG AF| G G2 B| de cd| Bd cA/2-A/2| GA BA|G-F D2| D2 D3/2 C/2| B,C D/2D/2 D/2D/2|\
 GG AF| G G2 D| GA Bc| dB GB| de cd|B-A G3/2 B/2| de cd| Bd c3/2 A/2|\
 G3/2 A/2 BA|G-F D3/2 B/2| de cd| Bd cA| GB BA|G-F D3/2 z/2| D2 D3/2 C/2|\
 B,C D/2D/2 D/2D/2| GG AF| G G2||
